src/icons/svg/token.svg

<?xml version="1.0" encoding="UTF-8"?>
<svg width="40px" height="47px" viewBox="0 0 40 47" version="1.1" xmlns="http://www.w3.org/2000/svg"
>
    <path d="M0.0197019836,4.91363002 C-0.0985501,3.65444237 0.319317873,2.40372046 1.17072565,1.46849755 C2.02213343,0.533274641 3.22824204,0 4.4929701,0 L35.5070299,0 C36.771758,0 37.9778666,0.533274641 38.8292743,1.46849755 C39.6806821,2.40372046 40.0985501,3.65444237 39.980298,4.91363002 L36.9606735,37.1162176 C36.8118208,38.7114831 35.824819,40.106811 34.3701772,40.778411 L21.8827718,46.5413104 C20.6881225,47.0925942 19.3118775,47.0925942 18.1172282,46.5413104 L5.62982277,40.7761643 C4.17583116,40.1049594 3.18894583,38.7106522 3.03932647,37.1162176 L0.0197019836,4.91363002 Z M5.2770839,36.9072704 L4.4929701,4.49348882 L7.51259458,36.6960764 L20,42.4612226 L32.4874054,36.6960764 L35.5070299,4.49348882 L4.4929701,4.49348882"
          id="形状" fill="#646A73"></path>
    <path d="M0.0197019836,4.91363002 C-0.0985501,3.65444237 0.319317873,2.40372046 1.17072565,1.46849755 C2.02213343,0.533274641 3.22824204,0 4.4929701,0 L35.5070299,0 C36.771758,0 37.9778666,0.533274641 38.8292743,1.46849755 C39.6806821,2.40372046 40.0985501,3.65444237 39.980298,4.91363002 L36.9606735,37.1162176 C36.8118208,38.7114831 35.824819,40.106811 34.3701772,40.778411 L21.8827718,46.5413104 C20.6881225,47.0925942 19.3118775,47.0925942 18.1172282,46.5413104 L5.62982277,40.7761643 C4.17583116,40.1049594 3.18894583,38.7106522 3.03932647,37.1162176 L0.0197019836,4.91363002 Z M5.2770839,36.9072704 L4.4929701,4.49348882 L7.51259458,36.6960764 L20,42.4612226 L32.4874054,36.6960764 L35.5070299,4.49348882 L4.4929701,4.49348882"
          id="形状" fill-opacity="0.2" fill="#000000"></path>
    <path d="M9.55937874,9.73514352 C9.98555401,9.25909377 10.5942599,8.98697763 11.2332033,8.98697763 L29.2071586,8.98697763 C30.4480013,8.98697763 31.453903,9.99287936 31.453903,11.233722 C31.453903,12.4745647 30.4480013,13.4804664 29.2071586,13.4804664 L13.7428168,13.4804664 L14.3674118,19.0973275 L28.0837864,19.0973275 C28.7148452,19.0972907 29.3168263,19.3626504 29.7425123,19.8285116 C30.1681983,20.2943728 30.3783391,20.9177811 30.3215438,21.5462789 L29.1981716,33.9033731 C29.1276626,34.6785054 28.6609973,35.3619279 27.9647089,35.7097556 L21.2244757,39.0798722 C20.5922177,39.3958125 19.8481443,39.3958125 19.2158862,39.0798722 L12.475653,35.7097556 C11.7865794,35.3654918 11.3219038,34.692221 11.244437,33.9258406 L10.6827509,28.3089795 C10.5586667,27.0743411 11.4589487,25.9728787 12.6935872,25.8487944 C13.9282256,25.7247101 15.029688,26.6249922 15.1537723,27.8596307 L15.5918875,32.2452757 L20.220181,34.5594225 L24.8372407,32.252016 L25.6236013,23.5908163 L12.3565755,23.5908163 C11.2113173,23.5908946 10.24929,22.7295221 10.1233116,21.5912138 L8.99993938,11.4808639 C8.92974633,10.8458851 9.13318786,10.2110495 9.55937874,9.73514352 Z"
          id="路径" fill="#646A73"></path>
    <path d="M9.55937874,9.73514352 C9.98555401,9.25909377 10.5942599,8.98697763 11.2332033,8.98697763 L29.2071586,8.98697763 C30.4480013,8.98697763 31.453903,9.99287936 31.453903,11.233722 C31.453903,12.4745647 30.4480013,13.4804664 29.2071586,13.4804664 L13.7428168,13.4804664 L14.3674118,19.0973275 L28.0837864,19.0973275 C28.7148452,19.0972907 29.3168263,19.3626504 29.7425123,19.8285116 C30.1681983,20.2943728 30.3783391,20.9177811 30.3215438,21.5462789 L29.1981716,33.9033731 C29.1276626,34.6785054 28.6609973,35.3619279 27.9647089,35.7097556 L21.2244757,39.0798722 C20.5922177,39.3958125 19.8481443,39.3958125 19.2158862,39.0798722 L12.475653,35.7097556 C11.7865794,35.3654918 11.3219038,34.692221 11.244437,33.9258406 L10.6827509,28.3089795 C10.5586667,27.0743411 11.4589487,25.9728787 12.6935872,25.8487944 C13.9282256,25.7247101 15.029688,26.6249922 15.1537723,27.8596307 L15.5918875,32.2452757 L20.220181,34.5594225 L24.8372407,32.252016 L25.6236013,23.5908163 L12.3565755,23.5908163 C11.2113173,23.5908946 10.24929,22.7295221 10.1233116,21.5912138 L8.99993938,11.4808639 C8.92974633,10.8458851 9.13318786,10.2110495 9.55937874,9.73514352 Z"
          id="路径" fill-opacity="0.2" fill="#000000"></path>
</svg>

<svg width="40" height="47" xmlns="http://www.w3.org/2000/svg"><path d="M.02 4.914A4.493 4.493 0 0 1 4.493 0h31.014a4.493 4.493 0 0 1 4.473 4.914l-3.02 32.202a4.493 4.493 0 0 1-2.59 3.662l-12.487 5.763a4.493 4.493 0 0 1-3.766 0L5.63 40.776a4.493 4.493 0 0 1-2.59-3.66L.02 4.914zm5.257 31.993L4.493 4.493l3.02 32.203L20 42.461l12.487-5.765 3.02-32.203H4.493" fill="currentColor"/><path d="M.02 4.914A4.493 4.493 0 0 1 4.493 0h31.014a4.493 4.493 0 0 1 4.473 4.914l-3.02 32.202a4.493 4.493 0 0 1-2.59 3.662l-12.487 5.763a4.493 4.493 0 0 1-3.766 0L5.63 40.776a4.493 4.493 0 0 1-2.59-3.66L.02 4.914zm5.257 31.993L4.493 4.493l3.02 32.203L20 42.461l12.487-5.765 3.02-32.203H4.493" fill-opacity=".2" fill="currentColor"/><path d="M9.56 9.735a2.247 2.247 0 0 1 1.673-.748h17.974a2.247 2.247 0 1 1 0 4.493H13.743l.624 5.617h13.717a2.247 2.247 0 0 1 2.238 2.45l-1.124 12.356a2.247 2.247 0 0 1-1.233 1.807l-6.74 3.37a2.247 2.247 0 0 1-2.01 0l-6.74-3.37a2.247 2.247 0 0 1-1.23-1.784l-.562-5.617a2.247 2.247 0 0 1 4.47-.45l.439 4.386 4.628 2.314 4.617-2.307.787-8.661H12.357a2.247 2.247 0 0 1-2.234-2L9 11.481c-.07-.635.133-1.27.56-1.746z" fill="currentColor"/><path d="M9.56 9.735a2.247 2.247 0 0 1 1.673-.748h17.974a2.247 2.247 0 1 1 0 4.493H13.743l.624 5.617h13.717a2.247 2.247 0 0 1 2.238 2.45l-1.124 12.356a2.247 2.247 0 0 1-1.233 1.807l-6.74 3.37a2.247 2.247 0 0 1-2.01 0l-6.74-3.37a2.247 2.247 0 0 1-1.23-1.784l-.562-5.617a2.247 2.247 0 0 1 4.47-.45l.439 4.386 4.628 2.314 4.617-2.307.787-8.661H12.357a2.247 2.247 0 0 1-2.234-2L9 11.481c-.07-.635.133-1.27.56-1.746z" fill-opacity=".2" fill="currentColor"/></svg>
